assets/headset-1.svg

<svg xmlns="http://www.w3.org/2000/svg" fill="none" viewBox="0 0 22 24">
  <path fill="#2A2238" d="M1.38462 20.2461C1.0917 19.5481 1 17.4532 1 15.6637c1.16729-.6254 2.3077-.9165 2.69231 0 .38462.9164.76922 4.1241.38461 4.5824-.38461.4582-2.39939.6979-2.6923 0Z"/>
  <path stroke="#2A2238" d="M11 1C4.07692 1 .999986 6.00341 1 15.6637m0 0c0 1.7895.0917 3.8844.38462 4.5824.29291.6979 2.30769.4582 2.6923 0 .38461-.4583.00001-3.666-.38461-4.5824-.38461-.9165-1.52502-.6254-2.69231 0Z"/>
  <path fill="#2A2238" d="M20.6154 20.2461c.2929-.698.3846-2.7929.3846-4.5824-1.1673-.6254-2.3077-.9165-2.6923 0-.3846.9164-.7692 4.1241-.3846 4.5824.3846.4582 2.3994.6979 2.6923 0Z"/>
  <path stroke="#2A2238" d="M11 1c6.9231 0 10 5.00341 10 14.6637m0 0c0 1.7895-.0917 3.8844-.3846 4.5824-.2929.6979-2.3077.4582-2.6923 0-.3846-.4583 0-3.666.3846-4.5824.3846-.9165 1.525-.6254 2.6923 0Z"/>
  <path fill="#2A2238" d="M11.291 22.6011c.3418.4127 2.6455.6391 3.1747 0 .2131-.8712-.0706-1.1044-.5291-1.2779-.1588-.06-2.4456-.2416-2.6456 0-.2.2416-.5291.639 0 1.2779Z"/>
  <path stroke="#2A2238" d="M19.7567 20.6842s.529 1.278-.5292 1.917c-3.1746 0-2.1164 0-4.7618-.0001m0 0c-.5292.6391-2.8329.4127-3.1747 0-.5291-.6389-.2-1.0363 0-1.2779.2-.2416 2.4868-.06 2.6456 0 .4585.1735.7422.4067.5291 1.2779Z"/>
</svg>

<svg width="22" height="24" viewBox="0 0 22 24" fill="none" xmlns="http://www.w3.org/2000/svg">
<path d="M1.38462 20.2461C1.0917 19.5481 1 17.4532 1 15.6637C2.16729 15.0383 3.3077 14.7472 3.69231 15.6637C4.07693 16.5801 4.46153 19.7878 4.07692 20.2461C3.69231 20.7043 1.67753 20.944 1.38462 20.2461Z" fill="#2A2238"/>
<path d="M11 1C4.07692 1 0.999986 6.00341 1 15.6637M1 15.6637C1 17.4532 1.0917 19.5481 1.38462 20.2461C1.67753 20.944 3.69231 20.7043 4.07692 20.2461C4.46153 19.7878 4.07693 16.5801 3.69231 15.6637C3.3077 14.7472 2.16729 15.0383 1 15.6637Z" stroke="#2A2238"/>
<path d="M20.6154 20.2461C20.9083 19.5481 21 17.4532 21 15.6637C19.8327 15.0383 18.6923 14.7472 18.3077 15.6637C17.9231 16.5801 17.5385 19.7878 17.9231 20.2461C18.3077 20.7043 20.3225 20.944 20.6154 20.2461Z" fill="#2A2238"/>
<path d="M11 1C17.9231 1 21 6.00341 21 15.6637M21 15.6637C21 17.4532 20.9083 19.5481 20.6154 20.2461C20.3225 20.944 18.3077 20.7043 17.9231 20.2461C17.5385 19.7878 17.9231 16.5801 18.3077 15.6637C18.6923 14.7472 19.8327 15.0383 21 15.6637Z" stroke="#2A2238"/>
<path d="M11.291 22.6011C11.6328 23.0138 13.9365 23.2402 14.4657 22.6011C14.6788 21.7299 14.3951 21.4967 13.9366 21.3232C13.7778 21.2632 11.491 21.0816 11.291 21.3232C11.091 21.5648 10.7619 21.9622 11.291 22.6011Z" fill="#2A2238"/>
<path d="M19.7567 20.6842C19.7567 20.6842 20.2857 21.9622 19.2275 22.6012C16.0529 22.6012 17.1111 22.6012 14.4657 22.6011M14.4657 22.6011C13.9365 23.2402 11.6328 23.0138 11.291 22.6011C10.7619 21.9622 11.091 21.5648 11.291 21.3232C11.491 21.0816 13.7778 21.2632 13.9366 21.3232C14.3951 21.4967 14.6788 21.7299 14.4657 22.6011Z" stroke="#2A2238"/>
</svg>
